public/gas.svg

<svg width="18" height="20" viewBox="0 0 18 20" fill="none" xmlns="http://www.w3.org/2000/svg">
<path d="M16.8431 5.30944H16.6212L16.0575 3.72046C16.0039 3.56928 15.8829 3.4516 15.7302 3.40239L15.0039 3.16784C14.7328 3.08026 14.4425 3.22899 14.3551 3.49984C14.2676 3.77075 14.4163 4.06124 14.6871 4.14863L15.1711 4.30497L15.5274 5.30941H15.3743C15.273 5.30941 15.181 5.36882 15.1393 5.46134L14.7215 6.38915C14.7046 6.42676 14.6969 6.46797 14.6992 6.50915L14.8564 9.34366C14.864 9.4802 14.9769 9.58706 15.1137 9.58706H15.2743V15.7318C15.2743 16.4175 14.8849 17.0136 14.3159 17.3116V13.4788C14.3159 13.1015 14.1798 12.7555 13.9544 12.4867V1.92049C13.9545 0.861536 13.093 0 12.034 0H3.157C2.09804 0 1.23657 0.861536 1.23657 1.92049V12.4866C1.01114 12.7553 0.875 13.1013 0.875 13.4787V18.4538C0.875 19.3064 1.56863 20 2.42125 20H12.7697C13.5403 20 14.1808 19.4335 14.297 18.6951C15.6009 18.3403 16.5628 17.1466 16.5628 15.7318V9.58712H16.8431C16.9854 9.58712 17.1008 9.47176 17.1008 9.32944V5.56719C17.1008 5.42487 16.9854 5.30944 16.8431 5.30944ZM7.59548 14.0523C6.38842 14.0523 5.40988 13.0737 5.40988 11.8667C5.40988 10.6596 7.59548 8.35016 7.59548 8.35016C7.59548 8.35016 9.78101 10.6597 9.78101 11.8667C9.78101 13.0737 8.80244 14.0523 7.59548 14.0523ZM11.893 5.51458H3.29808V2.0615H11.893V5.51458V5.51458Z" fill="#47AE58"/>
</svg>

<svg xmlns="http://www.w3.org/2000/svg" width="18" height="20" fill="none"><path fill="#47AE58" d="M16.843 5.31h-.222l-.563-1.59a.515.515 0 0 0-.328-.318l-.726-.234a.515.515 0 1 0-.317.98l.484.157.356 1.004h-.153a.258.258 0 0 0-.235.152l-.417.928a.258.258 0 0 0-.023.12l.157 2.835c.008.136.12.243.258.243h.16v6.145c0 .686-.39 1.282-.958 1.58v-3.833a1.54 1.54 0 0 0-.362-.992V1.92c0-1.058-.861-1.92-1.92-1.92H3.157c-1.059 0-1.92.862-1.92 1.92v10.567a1.539 1.539 0 0 0-.362.992v4.975c0 .852.694 1.546 1.546 1.546H12.77c.77 0 1.41-.567 1.527-1.305a3.076 3.076 0 0 0 2.266-2.963V9.587h.28a.258.258 0 0 0 .258-.258V5.567a.258.258 0 0 0-.258-.258Zm-9.248 8.742a2.186 2.186 0 0 1-2.185-2.185c0-1.207 2.185-3.517 2.185-3.517s2.186 2.31 2.186 3.517a2.186 2.186 0 0 1-2.186 2.185Zm4.298-8.537H3.298V2.062h8.595v3.453Z"/></svg>
